symbols/web/screen_lock_landscape/materialsymbolssharp/screen_lock_landscape_wght500gradN25fill1_40px.svg

<svg xmlns="http://www.w3.org/2000/svg" height="40" width="40"><path d="M15.083 26.542v-8.167h1.625v-1.708q0-1.334.98-2.292.979-.958 2.312-.958 1.375 0 2.333.958.959.958.959 2.292v1.708h1.666v8.167Zm3-8.167h3.834v-1.708q0-.792-.563-1.313-.562-.521-1.354-.521t-1.354.521q-.563.521-.563 1.313ZM1.708 31.708V8.292h36.584v23.416Zm7.084-3.041h22.416V11.333H8.792Z"/></svg>

<svg xmlns="http://www.w3.org/2000/svg" height="40" width="40"><path d="M15.083 26.542V18.375H16.708V16.667Q16.708 15.333 17.688 14.375Q18.667 13.417 20 13.417Q21.375 13.417 22.333 14.375Q23.292 15.333 23.292 16.667V18.375H24.958V26.542ZM18.083 18.375H21.917V16.667Q21.917 15.875 21.354 15.354Q20.792 14.833 20 14.833Q19.208 14.833 18.646 15.354Q18.083 15.875 18.083 16.667ZM1.708 31.708V8.292H38.292V31.708ZM8.792 28.667H31.208V11.333H8.792Z"/></svg>
